component-icons/svg/progressbar.svg

<?xml version="1.0" encoding="utf-8"?>
<!-- Generator: Adobe Illustrator 24.2.3, SVG Export Plug-In . SVG Version: 6.00 Build 0)  -->
<svg version="1.1" id="Layer_1" xmlns="http://www.w3.org/2000/svg" xmlns:xlink="http://www.w3.org/1999/xlink" x="0px" y="0px"
	 width="24px" height="24px" viewBox="0 0 24 24" enable-background="new 0 0 24 24" xml:space="preserve">
<path d="M24,3h-4v2h2L24,3z M4,10H0v4h4V10z M18,2H0v4h18V2z M0,22h12v-4H0V22z M14,21h8l2-2H14V21z M6,13h16l2-2H6V13z"/>
</svg>

<svg id="Layer_1" data-name="Layer 1" xmlns="http://www.w3.org/2000/svg" viewBox="0 0 24 24">
  <defs>
    <style>
      .cls-1 {
        fill: gray;
      }
    </style>
  </defs>
  <title>progressbar</title>
  <path class="cls-1" d="M24,3H20V5h2ZM4,10H0v4H4ZM18,2H0V6H18ZM0,22H12V18H0Zm14-1h8l2-2H14ZM6,13H22l2-2H6Z"/>
</svg>
